X: 1657
T: Annie's Favourite
R: hornpipe
M: 4/4
K: Gmajor
(3DEF|:G2 BG ABcA|defa gfdc|B3 G cedc|BGAF DEFG|
G2 BG ABcA|defa gfdB|BG (3Bcd cAFA|1 AGGF G2 (3DEF:|2 AGGF G2 Bd||
g2 ga gfdf|g2 af gfde|fdfg af (3gfe|fdec dcBA|
G2 BG ABcA|defa gfdc|B3d cAFA|AGGF G2:|

